X: 14864
T: Garrett County
R: hornpipe
M: 4/4
K: Adorian
(3Bcd|eAAA EAAA|BGGG Bddd|cBAc BAGB|AEED E2:|
(3ABc|dBgB aBgd|edcB cBAG|B2Bc BAGB|A2 A2 A2:|

